communes/4257.svg

<?xml version="1.0" encoding="UTF-8"?>
<!DOCTYPE svg  PUBLIC '-//W3C//DTD SVG 1.1//EN'  'http://www.w3.org/Graphics/SVG/1.1/DTD/svg11.dtd'>
<svg width="525" height="612" version="1.1" viewBox="0 0 350 408" xmlns="http://www.w3.org/2000/svg" xmlns:xlink="http://www.w3.org/1999/xlink">
<title>Wappen von Olsberg</title>
<desc>Wappen der Schweizer Gemeinde Olsberg, Kanton Aargau</desc>
<g stroke="#000" stroke-width="4">
<path d="m2 2h346v231a173 173 0 0 1-346 0z" fill="#094"/>
<path d="m2 2h346v138.4h-346z" fill="#fff"/>
<path d="m348 2v69.2h-346v-69.2h69.2v138.4h69.2v-138.4h69.2v138.4h69.2v-138.4z" fill="#f00000"/>
</g>
<g fill="#fff" stroke="#000" stroke-width="3">
<path d="m175 362c-11.5-45-44-69-90.5-65.5 39.5-25 52-63 34.5-106.5 36 30 76 30 112 0-17.5 43.5-5 81.5 34.5 106.5-46.5-3.5-79 20.5-90.5 65.5z" stroke-miterlimit="10"/>
<g id="a">
<path d="m186 252s24-28 24-54c0-13-8-23-35-23s-35 10-35 23c0 26 26 54 26 54"/>
<path d="m144 199c3-4 6-9 14-9 5 0 11 5 17 5s12-5 17-5c8 0 11 5 14 9" stroke-linecap="round"/>
</g>
<use transform="rotate(72 175 267)" xlink:href="#a"/>
<use transform="rotate(144 175 267)" xlink:href="#a"/>
<use transform="rotate(216 175 267)" xlink:href="#a"/>
<use transform="rotate(-72 175 267)" xlink:href="#a"/>
<circle cx="175" cy="267" r="26.5"/>
</g>
</svg>

<?xml version="1.0" encoding="ISO-8859-1" standalone="no"?>
<!DOCTYPE svg PUBLIC "-//W3C//DTD SVG 1.1//EN" "http://www.w3.org/Graphics/SVG/1.1/DTD/svg11.dtd">
<svg
   xmlns:svg="http://www.w3.org/2000/svg"
   xmlns="http://www.w3.org/2000/svg"
   xmlns:xlink="http://www.w3.org/1999/xlink"
   version="1.1"
   width="525" height="612"
   viewBox="0 0 350 408">
  <title>Wappen von Olsberg</title>
  <desc>Wappen der Schweizer Gemeinde Olsberg, Kanton Aargau</desc>
  <g stroke="black" stroke-width="4">
    <path d="M 2,2 h 346 V 233 A 173 173 0 0 1 2,233 z" fill="#009944" />
    <path d="M 2,2 h 346 V 140.4 H 2 z" fill="white" />
    <path d="M 348,2 V 71.2 H 2 V 2 h 69.2 V 140.4 h 69.2 V 2 h 69.2 V 140.4 h 69.2 V 2 z" fill="#f00000" />
  </g>
  <g stroke="black" stroke-width="3" fill="white">
    <path d="M 175,362 c -11.5,-45 -44,-69 -90.5,-65.5 39.5,-25 52,-63 34.5,-106.5 36,30 76,30 112,0 -17.5,43.5 -5,81.5 34.5,106.5 -46.5,-3.5 -79,20.5 -90.5,65.5 z" stroke-miterlimit="10" />
    <g id="blatt">
      <path d="M 186,252 c 0,0 24,-28 24,-54 0,-13 -8,-23 -35,-23 -27,0 -35,10 -35,23 0,26 26,54 26,54" />
      <path d="M 144,199 c 3,-4 6,-9 14,-9 5,0 11,5 17,5 6,0 12,-5 17,-5 8,0 11,5 14,9" stroke-linecap="round" />
    </g>
    <use xlink:href="#blatt" transform=" rotate(72,175,267)" />
    <use xlink:href="#blatt" transform=" rotate(144,175,267)" />
    <use xlink:href="#blatt" transform=" rotate(216,175,267)" />
    <use xlink:href="#blatt" transform=" rotate(288,175,267)" />
    <circle cx="175" cy="267" r="26.5" />
  </g>
</svg>
